public/assets/01_img/account/regular/new.svg

<svg width="60" height="60" viewBox="0 0 60 60" fill="none" xmlns="http://www.w3.org/2000/svg">
<path fill-rule="evenodd" clip-rule="evenodd" d="M57.5 30C57.5 45.1878 45.1878 57.5 30 57.5C14.8122 57.5 2.5 45.1878 2.5 30C2.5 14.8122 14.8122 2.5 30 2.5C45.1878 2.5 57.5 14.8122 57.5 30ZM60 30C60 46.5685 46.5685 60 30 60C13.4315 60 0 46.5685 0 30C0 13.4315 13.4315 0 30 0C46.5685 0 60 13.4315 60 30ZM30 44.5C38.0081 44.5 44.5 38.0081 44.5 30C44.5 21.9919 38.0081 15.5 30 15.5C21.9919 15.5 15.5 21.9919 15.5 30C15.5 38.0081 21.9919 44.5 30 44.5ZM42 30C42 36.6274 36.6274 42 30 42C23.3726 42 18 36.6274 18 30C18 23.3726 23.3726 18 30 18C36.6274 18 42 23.3726 42 30Z" fill="#ED824C"/>
</svg>

<?xml version="1.0" encoding="UTF-8"?>
<svg id="Livello_2" data-name="Livello 2" xmlns="http://www.w3.org/2000/svg" viewBox="0 0 60 60">
  <defs>
    <style>
      .cls-1 {
        fill: #e5b76e;
        fill-rule: evenodd;
      }
    </style>
  </defs>
  <g id="Livello_1-2" data-name="Livello 1">
    <path class="cls-1" d="M57.5,30c0,15.19-12.31,27.5-27.5,27.5S2.5,45.19,2.5,30,14.81,2.5,30,2.5s27.5,12.31,27.5,27.5Zm2.5,0c0,16.57-13.43,30-30,30S0,46.57,0,30,13.43,0,30,0s30,13.43,30,30Zm-30,14.5c8.01,0,14.5-6.49,14.5-14.5s-6.49-14.5-14.5-14.5-14.5,6.49-14.5,14.5,6.49,14.5,14.5,14.5Zm12-14.5c0,6.63-5.37,12-12,12s-12-5.37-12-12,5.37-12,12-12,12,5.37,12,12Z"/>
  </g>
</svg>
